symbolic/64x64/apps/ddaynormandy.svg

<svg xmlns="http://www.w3.org/2000/svg" width="64" height="64" version="1">
 <rect style="opacity:0.2" width="56" height="56" x="4" y="5" rx="2.8" ry="2.8"/>
 <rect style="fill:#71743a" width="56" height="56" x="4" y="4" rx="2.8" ry="2.8"/>
 <path style="opacity:0.1" d="M 6.8007812 4 C 5.2495813 4 4 5.2495813 4 6.8007812 L 4 57.199219 C 4 58.750419 5.2495813 60 6.8007812 60 L 57.199219 60 C 58.750419 60 60 58.750419 60 57.199219 L 60 6.8007812 C 60 5.2495813 58.750419 4 57.199219 4 L 6.8007812 4 z M 10 10 L 54 10 L 54 54 L 10 54 L 10 10 z"/>
 <path style="opacity:0.1" d="M 32,13 38.489358,26.167184 53,28.27864 42.5,38.527864 44.978714,53 32,46.167186 19.021286,53 21.499998,38.527864 11,28.27864 25.510642,26.167184 Z"/>
 <path style="fill:#363636" d="M 32,12 38.489358,25.167184 53,27.27864 42.5,37.527864 44.978714,52 32,45.167186 19.021286,52 21.499998,37.527864 11,27.27864 25.510642,25.167184 Z"/>
 <path style="opacity:0.1;fill:#ffffff" d="M 6.8007812 4 C 5.2495812 4 4 5.2495812 4 6.8007812 L 4 7.8007812 C 4 6.2495813 5.2495812 5 6.8007812 5 L 57.199219 5 C 58.750419 5 60 6.2495812 60 7.8007812 L 60 6.8007812 C 60 5.2495813 58.750419 4 57.199219 4 L 6.8007812 4 z"/>
</svg>

<svg xmlns="http://www.w3.org/2000/svg" width="64" height="64" version="1"><rect style="opacity:.2" width="56" height="56" x="4" y="5" rx="2.8" ry="2.8"/><rect style="fill:#71743a" width="56" height="56" x="4" y="4" rx="2.8" ry="2.8"/><path style="opacity:.1" d="M6.8 4C5.25 4 4 5.25 4 6.8v50.4C4 58.75 5.25 60 6.8 60h50.4c1.55 0 2.8-1.25 2.8-2.8V6.8C60 5.25 58.75 4 57.2 4H6.8zm3.2 6h44v44H10V10z"/><path style="opacity:.1" d="m32 13 6.49 13.167L53 28.28 42.5 38.528 44.979 53 32 46.167 19.021 53 21.5 38.528 11 28.278l14.51-2.11z"/><path style="fill:#363636" d="m32 12 6.49 13.167L53 27.28 42.5 37.528 44.979 52 32 45.167 19.021 52 21.5 37.528 11 27.278l14.51-2.11z"/><path style="opacity:.1;fill:#fff" d="M6.8 4C5.25 4 4 5.25 4 6.8v1C4 6.25 5.25 5 6.8 5h50.4C58.75 5 60 6.25 60 7.8v-1C60 5.25 58.75 4 57.2 4H6.8z"/></svg>
